X: 8923
T: Curley's
R: reel
M: 4/4
K: Cmajor
d2 d/d/d cABc|AGFE DCED/D/|DDE(E F2)GA|cGcA dd e(e|
f)f(ed) cABc-|ccAG FEDC|ED/D/DD E{E}FAA|d2 cAGE D2:|
A2 de^fga2|^f2 ge ceGc|EA {^c}de^fg a2|{f}^f2ge cded/d/|
defe dcA2|ABcA GFED|CE D2 DEFd|decA GE D2:|

